!!!COM: Stadler, Maximilian
!!!CDT: 1748///-1833///
!!!COA: Haydn, Joseph
!!!OTL@@IT: Gioco filarmonico
!!!OTL@EN: Philharmonic Joke
!!!OTA@@IT: o sia maniera facile per comporre un infinito numero de minuetti e trio anche senza sapere il contrapunto
!!!OTA@EN: or the Art of Composing an Infinite Number of Minutes Without the Least Knowledge of Counterpoint
!!!PDT: 1781///
!!!PPR: Artaria
!!!SML: Gesellschaft der Musikfreundes, Vienna
!!!PPR2: Luigi Marescalchi
!!!PPP2: Napoli
!!!PDT2: 1790///
**kern	**kern	**kern
*Icello	*Ivioln	*Ivioln
*>[A,A,B,B,A]	*>[A,A,B,B,A]	*>[A,A,B,B,A]
*>norep[A,B]	*>norep[A,B]	*>norep[A,B]
*>A	*>A	*>A
*k[]	*k[]	*k[]
*M3/4	*M3/4	*M3/4
*MM120	*MM120	*MM120
!!section:  I
!!measure:  A
!!diceroll: 7
=104	=104	=104
4C	4e	[4cc
4E	4g	16cc]
.	.	16bb
.	.	16aa
.	.	16gg
4r	4r	16ff
.	.	16ee
.	.	16dd
.	.	16cc
!!section:  I
!!measure:  B
!!diceroll: 7
=157	=157	=157
2F	2c	8a
.	.	8cc
.	.	8ff
.	.	8aa
4E	4c	4gg
!!section:  I
!!measure:  C
!!diceroll: 2
=141	=141	=141
4C	2.r	12e
.	.	12g
.	.	12cc
4c	.	12ee
.	.	12gg
.	.	12ff
4C	.	12ee
.	.	12dd
.	.	12cc
!!section:  I
!!measure:  D
!!diceroll: 6
=45	=45	=45
4GG	16g	16b
.	16b	16dd
.	16a	16cc
.	16g	16b
4D	16b	16dd
.	16a	16cc
.	16g	16b
.	16f#	16a
4G	4g	4b
!!section:  I
!!measure:  E
!!diceroll: 6
=80	=80	=80
2F#	[4a	[4cc
.	12a]	12cc]
.	12cc	12ee
.	12b	12dd
4D	12a	12cc
.	12g	12b
.	12f#	12a
!!section:  I
!!measure:  F
!!diceroll: 12
=37	=37	=37
4BB	4b	8.dd
.	.	16gg
4GG	4g	8.b
.	.	16dd
4r	4g	8.b
.	.	16gg
!!section:  I
!!measure:  G
!!diceroll: 5
=159	=159	=159
4C	16b	16dd
.	16a	16cc
.	16cc	16ee
.	16a	16cc
4D	4g	4b
4DD	4f#	4a
!!section:  I
!!measure:  H
!!diceroll: 4
=24	=24	=24
4G	2.g	2.g
8D	.	.
16r	.	.
16BB	.	.
4GG	.	.
*>B	*>B	*>B
!!section:  II
!!measure:  A
!!diceroll: 3
=117	=117	=117
8r	2e	2cc#
8B-	.	.
8A	.	.
8G	.	.
8F	4e	4cc#
8E	.	.
!!section:  II
!!measure:  B
!!diceroll: 8
=155	=155	=155
4r	4r	4dd
4A	4c#	16ee
.	.	16dd
.	.	16ee
.	.	16gg
4D	4d	4ff
!!section:  II
!!measure:  C
!!diceroll: 8
=57	=57	=57
4B	4d	4f
4r	4r	16ff
.	.	16ee
.	.	16dd
.	.	16cc
4G	4d	4b
!!section:  II
!!measure:  D
!!diceroll: 11
=164	=164	=164
4E	2g	8.cc
.	.	16g
4D	.	8.f
.	.	16g
4C	4g	4e
!!section:  II
!!measure:  E
!!diceroll: 6
=76	=76	=76
8F	8r	8r
8r	8a	8aa
8D	8r	8r
8r	8f	8ff
8BB	8r	8r
8r	8d	8dd
!!section:  II
!!measure:  F
!!diceroll: 5
=160	=160	=160
4r	4r	12f
.	.	12ff
.	.	12dd
4G	4d	12b
.	.	12dd
.	.	12f
4A	4c	4e
!!section:  II
!!measure:  G
!!diceroll: 5
=52	=52	=52
4F	8.c	16aa
.	.	16gg
.	.	16aa
.	16d	16ff
4G	4c	4ee
4G	4B	4dd
!!section:  II
!!measure:  H
!!diceroll: 6
=93	=93	=93
4C	2.cc	2.cc
8E	.	.
8G	.	.
4c	.	.
*-	*-	*-
!!!END: 2004/11/01/
